Obsidian-SemiLight/actions/22s/filename-title-amarok.svg

<svg viewBox="0 0 22 22" xmlns="http://www.w3.org/2000/svg"><path d="m4 3v10 6h1 9l4-4v-1.40625-10.59375h-1-12zm1 1h12v10h-3v1 3h-9v-5z" fill="#4d4d4d"/><path d="m7 6v2h8v-2z" fill="#3daee9"/></svg>

<svg xmlns="http://www.w3.org/2000/svg" viewBox="0 0 22 22">
  <defs id="defs3051">
    <style type="text/css" id="current-color-scheme">
      .ColorScheme-Text {
        color:#4d4d4d;
      }
      .ColorScheme-Highlight {
        color:#3daee9;
      }
      </style>
  </defs>
 <path 
     style="fill:currentColor;fill-opacity:1;stroke:none" 
     d="M 4 3 L 4 13 L 4 19 L 5 19 L 14 19 L 18 15 L 18 13.59375 L 18 3 L 17 3 L 5 3 L 4 3 z M 5 4 L 17 4 L 17 14 L 14 14 L 14 15 L 14 18 L 5 18 L 5 13 L 5 4 z "
     class="ColorScheme-Text"
     />
 <path 
     style="fill:currentColor;fill-opacity:1;stroke:none" 
     d="M 7 6 L 7 8 L 15 8 L 15 6 L 7 6 z "
     class="ColorScheme-Highlight"
     />
</svg>
